!!!SOCIAL_FUNCTION:	songs of the sun dance
!!!PDT:	1918

Specific Region: Dakotas, Minnesota, Montana, Nebraska
!!!REG: Dakotas and Montana
!!!LING_GROUP: Siouan
!!!LANG: Tone
!!!OTL@ENG: Song of Lamentation
!!!ONM: No. 23
**kern
*Imale
*clefF4
*k[b-e-a-]
*M2/4
*MM56
12f
[12f
12f]
32f
[16.c
8c]
=1||
*M3/4
12e-
[12e-
12e-]
16e-
[8.c
8c]
8c
=2||
*M2/4
12f
[12f
12f]
32f
[16.c
8c]
=3
*M3/4
12e-
[12c
12c]
16e-
[8.G
4G]
=4
16G
8.F
8E-
8C
4C
=5||
*M2/4
8F
[8E-
8E-]
16F
16E-
=6
4.C
8C
=7
2C
=8
4C
8c
16.f
32f
=9||
*M3/4
8.f
16e-
4c
12f
12f
12e-
=10
8.c
16B-
4G
8G
(32B-
16.G)
=11||
*M2/4
8F
(16G
16F)
4E-
=12
16G
16F
8E-
8F
8E-
=13
!!!RNB: Rhythm of first beat of bar 13 in source: 32-32-8
4.C
8C
=14
2C
==
*-
!!!CNT: Native American -- Sioux
!!!MRD: 1911/07//-1914///
!!!OCL: Frances Densmore
!!!YOR1: Teton Sioux Music, Bulletin 61,
!!!YOR2: Bureau of American Ethnology, Smithsonian Institution
!!!PPR: Government Printing Office
!!!PPP: Washington, D.C.
!!!PDT: 1918///
!!!ENC: Craig Stuart Sapp
!!!END: 2002/03/25/
!!!EEV: 2002/03/31/
!!!AGN: Ceremonial Song/Song of the Sun Dance
!!!MPN@@SIO: Ishn'la-wicha'
!!!MPN@ENG: Lone Man
!!!TXO: Teton Sioux
!!!MLC: Standing Rock Reservation, South Dakota, United States of America
!!!ARL: 45.9/-100.7#
!!!catalog: Catalogue No. 487
!!!PPG: 136
!!!EFL: 23/245
!!!VTS: 579786845
